startshape tree

rule tree {
	section {}
}

rule tree {
	section {rotate 4}
}

rule tree {
	section {rotate -4}
}

rule tree {
	section {rotate 30}
	section {rotate -30}
}

rule section {
	CIRCLE {sat 1 b .2 hue 1}
	tree {size 0.90 y 1.6
		sat 1 b .1 hue 3}
}