rule CHAPTER1 {
    ## BASIC SHAPES ##
    SQUARE { x 2 y 5 size 3 }
    CIRCLE { x 6 y 5 size 3 }
    TRIANGLE { x 4 y 2 size 3 }
//    SHAPES { y 1 size 3 }
}

rule SHAPES {
	SQUARE {}
	CIRCLE {b 0.3}
	TRIANGLE {b 0.5}
	TRIANGLE {r 60 b 0.7}
}
